icons/forgejo-light.svg

<svg width="256" height="256" viewBox="0 0 256 256" fill="none" xmlns="http://www.w3.org/2000/svg">
<rect width="256" height="256" rx="60" fill="#F4F2ED"/>
<path opacity="0.983" fill-rule="evenodd" clip-rule="evenodd" d="M98.6738 115.49C84.2609 126.949 75.9212 141.851 73.6543 160.197C73.5858 137.638 73.6543 115.08 73.8594 92.5215C77.1164 67.2591 90.4465 49.6909 113.85 39.8164C118.252 38.2714 122.764 37.1776 127.385 36.5352C134.079 36.1268 140.778 35.7851 147.482 35.5098C155.484 24.1157 166.148 20.6293 179.475 25.0508C191.766 31.5184 196.62 41.5672 194.035 55.1973C190.127 67.0299 181.924 73.3188 169.426 74.0645C159.63 73.7158 152.179 69.4092 147.072 61.1445C139.595 60.5628 132.212 61.1097 124.924 62.7852C109.577 68.2923 100.895 79.1615 98.8789 95.3926C98.6738 102.09 98.6053 108.79 98.6738 115.49ZM167.17 38.3809C175.773 38.3014 179.806 42.5397 179.27 51.0957C176.963 57.0686 172.657 59.4612 166.35 58.2734C159.898 55.279 157.916 50.4255 160.402 43.7129C162.018 41.0665 164.274 39.2891 167.17 38.3809Z" fill="#FE6500"/>
<path opacity="0.989" fill-rule="evenodd" clip-rule="evenodd" d="M73.6543 160.197C75.9212 141.851 84.2609 126.949 98.6738 115.49C107.47 109.069 117.314 105.173 128.205 103.801C134.628 103.416 141.053 103.074 147.482 102.775C153.541 93.7999 162.018 89.7669 172.912 90.6758C186.624 93.519 194.007 101.927 195.061 115.9C193.032 133.174 183.324 141.582 165.939 141.125C157.879 139.968 151.727 135.935 147.482 129.025C133.064 126.257 120.417 129.675 109.543 139.279C103.142 145.893 99.5872 153.823 98.8789 163.068C98.6053 170.315 98.6053 177.56 98.8789 184.807C110.334 192.553 114.026 203.081 109.953 216.389C104.498 228.176 95.2699 233.44 82.2676 232.18C68.8801 229.182 61.6338 220.843 60.5293 207.16C60.8867 197.382 65.1932 189.93 73.4492 184.807C73.6543 176.605 73.7228 168.402 73.6543 160.197ZM167.99 105.646C176.831 106.241 180.454 110.889 178.859 119.592C175.578 125.699 170.725 127.408 164.299 124.719C158.983 120.651 157.958 115.661 161.223 109.748C163.038 107.579 165.294 106.212 167.99 105.646ZM85.1387 196.701C93.3069 197.316 96.9298 201.69 96.0078 209.826C92.9435 216.656 87.9536 218.638 81.0371 215.773C77.0455 213.051 75.4733 209.291 76.3203 204.494C77.7415 200.133 80.6811 197.536 85.1387 196.701Z" fill="#D40000"/>
</svg>

<svg xmlns="http://www.w3.org/2000/svg" width="256" height="256" fill="none"><rect width="256" height="256" fill="#F4F2ED" rx="60"/><path fill="#FE6500" fill-rule="evenodd" d="M98.674 115.49q-21.62 17.188-25.02 44.707-.102-33.838.205-67.675 4.886-37.894 39.991-52.706a70 70 0 0 1 13.535-3.28q10.041-.613 20.097-1.026 12.003-17.09 31.993-10.46 18.437 9.702 14.56 30.147-5.862 17.75-24.609 18.867-14.694-.522-22.354-12.92a73 73 0 0 0-22.148 1.641q-23.02 8.261-26.045 32.608-.308 10.046-.205 20.097m68.496-77.11q12.904-.118 12.1 12.716-3.46 8.96-12.92 7.177-9.678-4.492-5.948-14.56 2.424-3.97 6.768-5.332" clip-rule="evenodd" opacity=".983"/><path fill="#D40000" fill-rule="evenodd" d="M73.654 160.197q3.4-27.519 25.02-44.707 13.194-9.631 29.531-11.689a1441 1441 0 0 1 19.277-1.026q9.089-13.462 25.43-12.1 20.568 4.266 22.149 25.225-3.044 25.91-29.122 25.225-12.09-1.735-18.457-12.1-21.627-4.152-37.939 10.254-9.602 9.921-10.664 23.789a288 288 0 0 0 0 21.739q17.183 11.62 11.074 31.582-8.182 17.68-27.685 15.791-20.082-4.496-21.739-25.02.536-14.668 12.92-22.353.308-12.303.205-24.61m94.336-54.551q13.262.892 10.869 13.946-4.921 9.16-14.56 5.127-7.974-6.102-3.076-14.971 2.723-3.253 6.767-4.102m-82.851 91.055q12.251.922 10.869 13.125-4.596 10.245-14.97 5.947-5.988-4.083-4.718-11.279 2.132-6.541 8.819-7.793" clip-rule="evenodd" opacity=".989"/></svg>
